X: 194
T: Song in Honor of Gabriel Renville (a)
C: Teton Sioux band 1911-1914
N: Derived from sioux189.krn
O: South Dakota, U.S.A.
N: Teton Sioux Music by Frances Densmore, 1918
Z: transcribed to **kern format by Craig Sapp
L: 1/16
M: 2/4
Q: 1/4=58
K: Ab clef=bass
%%linebreak <none>
F4(G3 F) [I:setbarnb 2]| 
(F2< =E2) F C3 ||  
[M:3/4]C12 ||  
[M:2/4]C4(F C) C2 | 
B,4B, A,3 ||  
[M:3/4](A,8F,4) ||  
[M:2/4]A,2> A,2 A,2 A,2 | 
C4(F2 C) C | 
B,4(B, A,2) A, ||  
[M:3/4]B,2< A,2 (A,2< F,2)A,4 ||  
[M:2/4]F,4F,4 | 
F,8- | 
F,8 |]  



